public/images/sso_buttons/sso-google.svg

<?xml version="1.0" encoding="UTF-8" standalone="no"?>
<svg width="18px" height="18px" viewBox="0 0 13 18" version="1.1" xmlns="http://www.w3.org/2000/svg" xmlns:xlink="http://www.w3.org/1999/xlink" xmlns:sketch="http://www.bohemiancoding.com/sketch/ns">
    <!-- Generator: Sketch 3.3.2 (12043) - http://www.bohemiancoding.com/sketch -->
    <title>sso-google copy</title>
    <desc>Created with Sketch.</desc>
    <defs></defs>
    <g id="Page-1" stroke="none" stroke-width="1" fill="none" fill-rule="evenodd" sketch:type="MSPage">
        <g id="sso-google" sketch:type="MSLayerGroup" fill="#FFFFFF">
            <g id="Page-1" sketch:type="MSShapeGroup">
                <g id="Artboard-1">
                    <g id="_svg_icon_google" transform="translate(0.012270, 0.000000)">
                        <g id="Group">
                            <g id="Shape">
                                <path d="M6.2822086,16.9281947 C3.76932515,16.9281947 2.09406953,15.7858012 2.09406953,14.1241379 C2.09406953,12.4624746 3.66462168,11.8393509 4.18813907,11.631643 C5.13047036,11.3200811 6.49161556,11.3200811 6.70102248,11.3200811 L7.22453989,11.3200811 C9.10920247,12.5663286 9.8421268,13.1894523 9.8421268,14.4356998 C9.8421268,15.8896552 8.58568506,16.9281947 6.2822086,16.9281947 L6.2822086,16.9281947 L6.2822086,16.9281947 Z M6.2822086,7.58133873 C4.29284253,7.58133873 3.35051125,4.98498985 3.35051125,3.42718053 C3.35051125,2.8040568 3.45521473,2.07707911 3.87402861,1.55780933 C4.18813907,1.14239351 4.9210634,0.830831645 5.54928427,0.830831645 C7.53865031,0.830831645 8.58568506,3.53103448 8.58568506,5.19269776 C8.58568506,5.60811359 8.4809816,6.33509127 7.95746422,6.85436104 C7.53865031,7.26977687 6.91042944,7.58133873 6.2822086,7.58133873 L6.2822086,7.58133873 L6.2822086,7.58133873 Z M9.42331288,10.1776876 L8.58568506,9.5545639 C8.27157464,9.34685598 7.95746422,9.03529413 7.95746422,8.51602432 C7.95746422,7.99675456 8.27157464,7.6851927 8.58568506,7.37363085 C9.63271984,6.64665313 10.6797546,5.81582151 10.6797546,4.05030425 C10.6797546,2.28478702 9.52801634,1.35010142 9.00449897,0.934685598 L10.4703476,0.934685598 L11.9361963,0 L7.01513293,0 C5.65398773,0 3.97873211,0.103853955 2.61758691,1.24624746 C1.57055215,2.07707911 1.15173824,3.42718053 1.15173824,4.46572008 C1.15173824,6.33509127 2.61758691,8.20446247 5.13047036,8.20446247 C5.44458077,8.20446247 5.65398773,8.10060853 5.96809815,8.10060853 C5.86339469,8.41217039 5.75869119,8.6198783 5.75869119,9.03529413 C5.75869119,9.76227181 6.07280164,10.1776876 6.38691206,10.5931034 C5.33987731,10.6969574 3.35051125,10.8008114 1.88466258,11.7354969 C0.418813907,12.5663286 0,13.7087221 0,14.5395537 C0,16.305071 1.57055215,17.9667343 5.13047036,17.9667343 C9.21390593,17.9667343 11.4126789,15.6819473 11.4126789,13.5010142 C11.4126789,11.8393509 10.4703476,11.1123732 9.42331288,10.1776876 L9.42331288,10.1776876 L9.42331288,10.1776876 Z"></path>
                            </g>
                        </g>
                    </g>
                </g>
            </g>
        </g>
    </g>
</svg>

<svg width="18" height="18" viewBox="0 0 13 18" xmlns="http://www.w3.org/2000/svg"><title>sso-google copy</title><path d="M6.294 16.928c-2.512 0-4.188-1.142-4.188-2.804s1.57-2.285 2.094-2.492c.943-.312 2.304-.312 2.513-.312h.524c1.884 1.246 2.617 1.87 2.617 3.116 0 1.454-1.256 2.492-3.56 2.492zm0-9.347c-1.99 0-2.93-2.59-2.93-4.15 0-.62.103-1.35.522-1.87C4.2 1.146 4.933.83 5.562.83c1.99 0 3.036 2.7 3.036 4.363 0 .415-.105 1.142-.628 1.66-.42.417-1.047.728-1.676.728zm3.142 2.6l-.838-.62c-.314-.21-.628-.52-.628-1.04s.314-.83.628-1.14c1.047-.73 2.094-1.56 2.094-3.324 0-1.764-1.152-2.7-1.675-3.114h1.466L11.948 0h-4.92C5.665 0 3.99.104 2.63 1.246c-1.047.83-1.466 2.18-1.466 3.22 0 1.87 1.466 3.738 3.98 3.738.313 0 .522-.103.836-.103-.104.318-.21.52-.21.94 0 .728.315 1.144.63 1.56-1.048.103-3.037.207-4.503 1.14-1.467.83-1.885 1.97-1.885 2.8 0 1.766 1.57 3.428 5.13 3.428 4.084 0 6.283-2.285 6.283-4.466 0-1.66-.942-2.383-1.99-3.32z" fill="#FFF" fill-rule="evenodd"/></svg>
